static/assets/images/networks/linea.svg

<svg xmlns="http://www.w3.org/2000/svg" fill="none" viewBox="0 0 512 512"><path fill="#000" fill-rule="evenodd" d="M512 256c0 141.385-114.615 256-256 256S0 397.385 0 256 114.615 0 256 0s256 114.615 256 256" clip-rule="evenodd"/><path fill="#fff" d="M349.069 203.14c25.367 0 45.931-20.851 45.931-46.57S374.436 110 349.069 110s-45.93 20.85-45.93 46.57 20.564 46.57 45.93 46.57M355.049 391 130 390.999V150.576h51.491v193.829h173.558z"/></svg>

<svg width="512" height="512" viewBox="0 0 512 512" fill="none" xmlns="http://www.w3.org/2000/svg">
<path fill-rule="evenodd" clip-rule="evenodd" d="M512 256C512 397.385 397.385 512 256 512C114.615 512 0 397.385 0 256C0 114.615 114.615 0 256 0C397.385 0 512 114.615 512 256Z" fill="black"/>
<path d="M349.069 203.14C374.436 203.14 395 182.289 395 156.57C395 130.85 374.436 110 349.069 110C323.703 110 303.139 130.85 303.139 156.57C303.139 182.289 323.703 203.14 349.069 203.14Z" fill="white"/>
<path d="M355.049 391L130 390.999V150.576H181.491V344.405H355.049V391Z" fill="white"/>
</svg>
